X:2
T:Connie O'Connell's Jig #2
T:Lad O'Beirne
M:6/8
L:1/8
R:jig
F:http://www.ibiblio.org/fiddlers/CON_CONWAY.htm
%%slurgraces
K:D
A |\
"D"d>FF AFF | dFF AGF | "A7"A,CE ~G3 | A,CE GFE |
"D"D>FA "G"DGB | "A7"Adc "D(Bm)"d2e | "D"fed "A"cBA | "A7"GFE "D"D2 :|
|: e |\
"D"f>ef a^ga | f>dc def | "C"e>=ce ~g3 | "A7"e>ce cde |
"D"f>ef "G"g>fg | "D"a>^ga "G"ba=g | "D"fed "A"cBA | "A7"GFE "D"D2 :|
